X:1
T:Title
L:1/8
Q:1/4=99
M:6/8
K:D
V:1 treble nm="Church Organ, Staff"
V:1
 A d2 dcd | e d2 cBc | d A2 FGA | B E2- E E2 | E G2 GFG | F E2 D E2 | FGA B c2 | dec A2 A | %8
w: By~A.~H.~Brown * * * *||||||||
 A2 d B2 G- | G F2- F .E2 | e e2 dcB | A d2 F A2 | GFE D F2 | ^G A2 d c2 | B A2 f e2 | edc d c2 | %16
w: ||||||||
 F B2 d c2 | F B2 A G2 | E A2 G F2 | E d2- d d2 | d f2 e d2 | c d2- d .d2 |] %22
w: ||||||

